app/dist/common/images/chengdu-kanghong-p.svg

<svg height="18" viewBox="0 0 18 18" width="18" xmlns="http://www.w3.org/2000/svg"><path d="m0 0h18v18h-18z" fill="#f0f3fa"/><g fill="#0081cc"><path d="m9.72 5-2.67.76c-.65.22-1.05.88-1.05 1.57 0 .28.07.57.22.83l3.08 4.84h-4.25c-.58 0-1.05-.51-1.05-1.14v-5.72c0-.64.47-1.14 1.05-1.14z"/><path d="m12.25 5-3.75 1.29a.8.8 0 0 0 -.5.75c0 .16.04.34.15.48l4.08 5.48h.72c.58 0 1.05-.51 1.05-1.14v-5.72c-0-.64-.47-1.14-1.05-1.14z"/></g></svg>

<!-- by TradingView --><svg width="18" height="18" viewBox="0 0 18 18" xmlns="http://www.w3.org/2000/svg"><path fill="#F0F3FA" d="M0 0h18v18H0z"/><path d="m9.72 5-2.67.76C6.4 5.98 6 6.64 6 7.33c0 .28.07.57.22.83L9.3 13H5.05C4.47 13 4 12.49 4 11.86V6.14C4 5.5 4.47 5 5.05 5h4.67Z" fill="#0081CC"/><path d="M12.25 5 8.5 6.29a.8.8 0 0 0-.5.75c0 .16.04.34.15.48L12.23 13h.72c.58 0 1.05-.51 1.05-1.14V6.14C14 5.5 13.53 5 12.95 5h-.7Z" fill="#0081CC"/></svg>
